!!!OTL: WAS KLINGET UND SINGET DIE STRASSEN HERAUF
!!!ARE: Europa, Mitteleuropa, Deutschland
!!!SCT: F0212
!!!YEM: Copyright 1995, estate of Helmut Schaffrath.
**kern
*ICvox
*Ivox
*M6/8
*k[b-]
*F:
{8F
=1
8F
8F
8F
8A
8A
8A
=2
8c
8c
8c
4A}
{8F
=3
4d
8d
8f
8e
8d
=4
4c
8c
4A}
{8c
=5
8c
8G
8G
8G
8A
8B-
=6
4.A
8c
8r}
{8c
=7
8c
8G
8G
8G
8A
8B-
=8
4.A
8c
8r}
{8c
=9
8c
8A
8B-
4c
8f
=10
4.e
8f
8r}
==
!!!AGN: Abschieds - Lied, Liebe
!!!ONB: ESAC (Essen Associative Code) Database: FINK
!!!AMT: compound duple
!!!AIN: vox
!!!EED: Helmut Schaffrath
!!!EEV: 1.0
*-
